X:1
T:Näin unta kesästä kerran
T:Näin unta kesästä kerran
T:SATB
T:Otto Kotilainen
T:Eino Leino
C:Otto Kotilainen
Z:Eino Leino
%%score [ 1 2 3 4 ]
L:1/8
Q:1/4=60
M:2/4
K:G
V:1 treble nm="Soprano" snm="S."
V:2 treble nm="Alto" snm="A."
V:3 bass nm="Tenor" snm="T."
V:4 bass nm="Bass" snm="B."
V:1
!mf! B2 A3/2 F/ |[M:3/4] (3G F ^D E2 !breath!E2 |[M:2/4] G3/2 G/ F G/A/ | B A/G/ A !breath!A | %4
w: Näin un- ta|ke- säs- tä ker- ran,|kuin- ka pais- toi _|päi- vä _ Her- ran.|
!mf! B!<(! G A B | d B c3/2!<)! !breath!d/ |!f! e d c B/ G/ |!mf! A!>(! A B2!>)! | %8
w: Pais- toi mul- le|pais- toi muil- le|pais- toi köy- häin- kin|pi- hoil- le.|
!mf! (3c B A (3F G A | B B z2 |!mf! (3A G F (3D E F | G G z2 |!mf! (3F E D (3B, C D | E E z2 | %14
w: Vi- her- si tu- han- net|vir- vet|Si- ner- si sa- tai- set|jär- vet|I- loit- si i- ha- nat|num- met|
!mf! (3d c B (3AG A |[Q:1/4=40] B2 !fermata!B2 |[M:3/4]!f![Q:1/4=60] e4 (3B A G | %17
w: Ta- ri- noi met- * sän|tam- met.|Puu pu- he- li,|
[M:2/4]!mf! A3/2 G/ F !breath!A |[M:3/4]!f! e4 (3B A G |!mf! A3/2 G/ F3 !fermata!F | %20
w: kuk- ka kuu- li.|Puu pu- he- li,|kuk- ka kuu- li,|
[M:2/4]!mf! (3B3/2 A/ G (3F E !breath!^D |!mp! (3!>!G !>!F !>!E (3:2:2D2 C |!p![Q:1/4=40] E4- | %23
w: Köy- hä sen to- dek- si|to- dek- si köy- hä|luu-|
!pp! E2 E z |] %24
w: * li.|
V:2
!mf! B2 A3/2 F/ |[M:3/4] (3G F ^D E2 !breath!E2 |[M:2/4] E3/2 E/ E E | G E F !breath!F | %4
w: Näin un- ta|ke- säs- tä ker- ran,|kuin- ka pais- toi|päi- vä Her- ran.|
!mf! G!<(! G G G | G G G3/2!<)! !breath!G/ |!f! G G G G/ G/ |!mf! F!>(! F F2!>)! | %8
w: Pais- toi mul- le|pais- toi muil- le|pais- toi köy- häin- kin|pi- hoil- le.|
!mf! (3F F F (3F E F | G G z2 |!mf! (3^D D D (3D ^C D | E E z2 |!mf! (3C C C (3B, A, B, | C C z2 | %14
w: Vi- her- si tu- han- net|vir- vet|Si- ner- si sa- tai- set|jär- vet|I- loit- si i- ha- nat|num- met|
!mf! (3D C B, (3A,G, A, | (3:2:2(B,2 ^C) !fermata!^D2 |[M:3/4]!f! G4 (3G F E | %17
w: Ta- ri- noi met- * sän|tam- * met.|Puu pu- he- li,|
[M:2/4]!mf! E3/2 E/ E !breath!E |[M:3/4]!f! G4 (3G F E |!mf! E3/2 E/ E3 !fermata!E | %20
w: kuk- ka kuu- li.|Puu pu- he- li,|kuk- ka kuu- li,|
[M:2/4]!mf! (3G3/2 F/ E (3B, B, !breath!B, |!mp! ^A,2- (3:2:2A,2 A, |!p! B,4- |!pp! B,2 B, z |] %24
w: Köy- hä sen to- dek- si|luu- * li,|luu-|* li.|
V:3
!mf! B,2 A,3/2 F,/ |[M:3/4] (3G, F, ^D, E,2 !breath!E,2 |[M:2/4] B,3/2 B,/ C C | %3
w: Näin un- ta|ke- säs- tä ker- ran,|kuin- ka pais- toi|
 B, B, D !breath!D |!mf! D!<(! B, C D | B, D D3/2!<)! !breath!D/ |!f! C B, A, G,/ B,/ | %7
w: päi- vä Her- ran.|Pais- toi mul- le|pais- toi muil- le|pais- toi köy- häin- kin|
!mf! D!>(! D D2!>)! |!mf! (3D D D (3D D D | D D D !breath!G, |!mf! (3B, B, B, (3B, B, B, | %11
w: pi- hoil- le.|Vi- her- si tu- han- net|vir- vet, vir- vet,|Si- ner- si sa- tai- set|
 B, B, B, !breath!E, |!mf! (3A, A, A, (3G, G, G, | G, G, G, !breath!C |!mf! (3D C B, (3A,G, A, | %15
w: jär- vet, jär- vet.|I- loit- si i- ha- nat|num- met, num- met.|Ta- ri- noi met- * sän|
 (3(B, A, G,) F,2 |[M:3/4]!f! B,4 (3B, B, B, |[M:2/4]!mf! A,3/2 A,/ C !breath!C | %18
w: tam- * * met.|Puu pu- he- li,|kuk- ka kuu- li.|
[M:3/4]!f! B,4 (3B, B, B, |!mf! A,3/2 A,/ A,3 !fermata!A, |[M:2/4]!mf! B,2 (3(A, G,) F, | %21
w: Puu pu- he- li,|kuk- ka kuu- li,|Köy- hä * sen|
!mp! (3E, E, E, (3!>!G, !>!F, !>!E, |!p! (G,2 A,2 |!pp! G,2) G, z |] %24
w: to- dek- si köy- hä- sen|luu- *|* li.|
V:4
!mf! B,2 A,3/2 F,/ |[M:3/4] (3G, F, ^D, E,2 !breath!E,2 |[M:2/4] E,3/2 E,/ E, E, | %3
w: Näin un- ta|ke- säs- tä ker- ran,|kuin- ka pais- toi|
 E, E, D, !breath!D, |!mf! G,!<(! G, G, G, | G, G, A,3/2!<)! !breath!B,/ |!f! C B, A, G,/ B,/ | %7
w: päi- vä Her- ran.|Pais- toi mul- le|pais- toi muil- le|pais- toi köy- häin- kin|
!mf! D!>(! C G,2!>)! |!mf! (3A, A, A, (3D, D, D, | G,2 B,,2 |!mf! (3F, F, F, (3B,, B,, B,, | %11
w: pi- hoil- le.|Vi- her- si tu- han- net|vir- vet-|Si- ner- si sa- tai- set|
 E,2 G,,2 |!mf! (3D, D, D, (3G, G, G, | C,2 E,2 |!mf! (3D, C, B,, (3A,,G,, A,, | %15
w: jär- vet.|I- loit- si i- ha- nat|num- met.|Ta- ri- noi met- * sän|
 B,,2 !fermata!B,,2 |[M:3/4]!f! E,4 (3E, E, E, |[M:2/4]!mf! C,3/2 C,/ A, !breath!A, | %18
w: tam- met.|Puu pu- he- li,|kuk- ka kuu- li.|
[M:3/4]!f! E,4 (3E, E, E, |!mf! C,3/2 C,/ C,3 !fermata!C, |[M:2/4]!mf! !breath!B,,4 |!mp! C,4 | %22
w: Puu pu- he- li,|kuk- ka kuu- li,|Köy-|hä|
!mp! (3B,,3/2 A,,/ G,, (3.F,, .G,, .F,, |!p! E,,2 E,, z |] %24
w: Köy- hä sen to- dek- si|luu- li.|

